X:21
T:Chinese Dance. RHu.021
S:R.Hughes MS,1823,Whitchurch,Shrops.
A:Whitchurch, Shropshire
Z:Neil Brookes 2006
M:2/4
L:1/8
Q:1/4=90
R:Country Dance
K:G
B/A/|Ggfe|d/e/d/c/ Bd|BcBd|cA AB/A/|!
Ggfe|d/e/d/c/ Bd|BdcB|G2″cr in MS”G||!
A/G/|FAFA|FA cB/A/|GBGB|GB d(3d/e/f/|!
gg d(3d/e/f/|gg d(3d/e/f/|gdcB|A/G/A/B/ A/c/B/A/|]

